!!!COM: taylor-swift
!!!OTL: you-belong-with-me
!!!RNB: hooktheoryid: NLAgQjWAxyO
**kern	**text
*clefG2	*
*k[b-e-a-d-g-c-]	*
*M4/4	*
=1	=1
4b-	Gb
8a-	.
4.b-	.
8a-	.
[8b-	.
=2	=2
8b-]	Gb
8a-	.
8b-	.
8b-	.
4a-	.
4g-	.
=3	=3
4b-	Db
8a-	.
4.b-	.
8a-	.
[8b-	.
=4	=4
8b-]	Db
8a-	.
4b-	.
4a-	.
4g-	.
=5	=5
4.b	Abm
4.b-	.
[4e-	.
=6	=6
4e-]	Abm
8g-	.
8g-	.
4g-	.
4d-	.
=7	=7
4.b	B
4.b-	.
[4B	.
=8	=8
8B]	B
4.d-	.
2r	.
*-	*-